assets/img/braze_icons/copy-06.svg

<svg fill="none" height="24" viewBox="0 0 24 24" width="24" xmlns="http://www.w3.org/2000/svg"><g clip-rule="evenodd" fill="#801ed7" fill-rule="evenodd"><path d="m17.1458 4.05118c-.6169-.0504-1.4092-.05118-2.5458-.05118h-7.1c-.55228 0-1-.44771-1-1 0-.55228.44772-1 1-1h7.1428c1.0838-.00001 1.9579-.00002 2.6658.05782.7289.05955 1.3691.18536 1.9614.48715.9408.47936 1.7057 1.24427 2.185 2.18508.3018.59229.4276 1.23248.4872 1.96133.0578.70788.0578 1.58204.0578 2.66584v7.14278c0 .5523-.4477 1-1 1s-1-.4477-1-1v-7.1c0-1.13661-.0008-1.92892-.0512-2.54576-.0494-.60517-.1416-.95286-.2758-1.21621-.2876-.56449-.7465-1.02343-1.311-1.31105-.2634-.13419-.6111-.22636-1.2162-.2758z"/><path d="m6.16146 5.5h8.17704c.5272-.00002.982-.00003 1.3565.03057.3954.0323.7886.10362 1.167.29641.5645.28762 1.0234.74656 1.311 1.31105.1928.37838.2641.7716.2964 1.16694.0306.37458.0306.82935.0306 1.35651v8.17702c0 .5272 0 .9819-.0306 1.3565-.0323.3954-.1036.7886-.2964 1.167-.2876.5645-.7465 1.0234-1.311 1.311-.3784.1928-.7716.2641-1.167.2964-.3745.0306-.8293.0306-1.3565.0306h-8.17702c-.52716 0-.98193 0-1.35651-.0306-.39534-.0323-.78856-.1036-1.16694-.2964-.56449-.2876-1.02343-.7465-1.31105-1.311-.19279-.3784-.26411-.7716-.29641-1.167-.0306-.3745-.03059-.8293-.03057-1.3565v-8.17704c-.00002-.52715-.00003-.98192.03057-1.35649.0323-.39534.10362-.78856.29641-1.16694.28762-.56449.74656-1.02343 1.31105-1.31105.37838-.19279.7716-.26411 1.16694-.29641.37458-.0306.82934-.03059 1.35649-.03057z"/></g></svg>

<svg width="24" height="24" viewBox="0 0 24 24" fill="none" xmlns="http://www.w3.org/2000/svg">
<path fill-rule="evenodd" clip-rule="evenodd" d="M17.1458 4.05118C16.5289 4.00078 15.7366 4 14.6 4H7.5C6.94772 4 6.5 3.55229 6.5 3C6.5 2.44772 6.94772 2 7.5 2L14.6428 2C15.7266 1.99999 16.6007 1.99998 17.3086 2.05782C18.0375 2.11737 18.6777 2.24318 19.27 2.54497C20.2108 3.02433 20.9757 3.78924 21.455 4.73005C21.7568 5.32234 21.8826 5.96253 21.9422 6.69138C22 7.39926 22 8.27342 22 9.35722V16.5C22 17.0523 21.5523 17.5 21 17.5C20.4477 17.5 20 17.0523 20 16.5V9.4C20 8.26339 19.9992 7.47108 19.9488 6.85424C19.8994 6.24907 19.8072 5.90138 19.673 5.63803C19.3854 5.07354 18.9265 4.6146 18.362 4.32698C18.0986 4.19279 17.7509 4.10062 17.1458 4.05118Z" fill="#801ED7"/>
<path fill-rule="evenodd" clip-rule="evenodd" d="M6.16146 5.5H14.3385C14.8657 5.49998 15.3205 5.49997 15.695 5.53057C16.0904 5.56287 16.4836 5.63419 16.862 5.82698C17.4265 6.1146 17.8854 6.57354 18.173 7.13803C18.3658 7.51641 18.4371 7.90963 18.4694 8.30497C18.5 8.67955 18.5 9.13432 18.5 9.66148V17.8385C18.5 18.3657 18.5 18.8204 18.4694 19.195C18.4371 19.5904 18.3658 19.9836 18.173 20.362C17.8854 20.9265 17.4265 21.3854 16.862 21.673C16.4836 21.8658 16.0904 21.9371 15.695 21.9694C15.3205 22 14.8657 22 14.3385 22H6.16148C5.63432 22 5.17955 22 4.80497 21.9694C4.40963 21.9371 4.01641 21.8658 3.63803 21.673C3.07354 21.3854 2.6146 20.9265 2.32698 20.362C2.13419 19.9836 2.06287 19.5904 2.03057 19.195C1.99997 18.8205 1.99998 18.3657 2 17.8385V9.66146C1.99998 9.13431 1.99997 8.67954 2.03057 8.30497C2.06287 7.90963 2.13419 7.51641 2.32698 7.13803C2.6146 6.57354 3.07354 6.1146 3.63803 5.82698C4.01641 5.63419 4.40963 5.56287 4.80497 5.53057C5.17955 5.49997 5.63431 5.49998 6.16146 5.5Z" fill="#801ED7"/>
</svg>
